X: 19079
T: Irish Girl, The
R: strathspey
M: 4/4
K: Dmajor
|:FGFE DEFD|EA, ~A,2 EA, ~A,2|FGFE DEFA|1 B/c/d ec dcBA:|2 B/c/d ec fdde||
|:fddc dfaf|edcd efge|1 fddc dfaf|g/a/b eg fdde:|2 dfaf g2 bg|f/g/a ec dcBA||

